images/brands/lemonde.svg

<svg fill="none" height="180" viewBox="0 0 520 180" width="520" xmlns="http://www.w3.org/2000/svg"><g clip-rule="evenodd" fill-rule="evenodd"><path d="m98.359 59.322c-.3654-1.7055-3.3154-5.6233-6.621-5.6233-.7406 0-1.2283.1233-1.7161.2507 3.1862 1.2233 5.6373 4.3904 6.3779 6.5986l1.8356-1.1v-.126zm20.843 74.234-11.91-7.949c-1.432-.956-3.098-2.763-3.098-6.134v-28.788l-1.193.726-.473.2411v28.6589c0 2.411 1.306 4.938 3.088 6.143l12.038 8.067zm-51.4456-28.876c.2334-4.884-.8143-10.8416-1.8703-16.5621-1.0561-5.8356-1.9995-11.7945-1.88-17.0288.1195-3.2137.7058-6.3109 1.9939-9.1712-2.226 3.4521-3.6294 7.3808-3.7503 11.5521-.3501 10.126 4.4548 23.3424 3.9824 33.594-.0968 1.391-.2121 2.781-.346 4.169l.2306-.241c.9407-1.312 1.5257-3.333 1.6397-6.312m16.7075 28.704c-1.7869-3.548-6.0694-5.713-11.0744-5.713-.4808.11-.9574.11-1.4312.11 4.8855.804 9.0513 3.427 10.6033 6.74l1.9023-1.139zm43.0751-42.3565-4.169-4.4521.127 2.9658 2.199 2.5137zm114.207-25-9.994-5.8589 1.501-.9904 9.616 5.6068c-.376.3713-.751.7425-1.123 1.2425zm2.376 68.4935-4.102-2.852c-2.696-1.898-4.099-5.103-4.099-8.662v-39.6357c0-5.4589 1.174-9.2575 3.044-11.8644-1.053 2.6069-1.522 5.8124-1.522 9.4932l.115 40.5799c0 4.391 1.292 7.241 4.339 9.376l3.751 2.617-1.525.948zm-33.212-.362s-.387.24-.642.362h-1.028v-66.2552c0-3.2041-.258-3.2041-2.315-4.6328l-2.963-2.137 1.936-.948c1.542 1.1836 3.86 2.8493 3.86 2.9699.9.8288 1.152 1.3014 1.152 3.2027v67.5544zm-49.124-81.8301c-1.025 2.6438-.897 5.1698.386 7.2397 1.162 1.8356 3.214 3.1014 5.663 3.6781-7.588.5712-10.926-4.8261-6.049-10.9178m17.862 57.5341c.494-1.889.695-4.014.695-6.253v-34.3222c0-4.1261-.201-4.5932-1.392-5.8905h.201c1.684-.3561 2.578.0001 2.578 3.5329v34.4398c0 4.011-.592 6.605-2.082 8.494m2.985 24.658c-.993-3.241-3.996-5.982-9.24-6.732.754-.119 1.5-.119 2.254-.119 6.486.118 8.362 4.104 8.738 5.352l.124.37-1.876 1.128zm178.344-.842-3.578-2.155c-3.228-1.924-4.901-4.913-4.901-9.467v-32.4702c0-1.9151-.115-1.7946-.837-2.3959 0 0-2.507-2.0384-4.18-3.3562l-1.788.9658 3.46 2.6301c1.914 1.4342 1.677 1.5548 1.677 4.4329v31.5085c0 4.313 1.789 7.308 4.296 8.753l4.299 2.395zm-33.348.594v-48.6493l-1.868-1.789-2.301 1.0781 2.154 2.0301v47.5771h1.16c.284-.124.715-.247.715-.247zm-38.906-.596-13.893-8.338c-2.782-1.689-3.863-3.74-3.863-7.365v-27.29l-1.209.6041-.489.2398v27.7751c0 3.262 1.448 5.671 3.99 7.128l13.888 8.089zm6.947-15.596v-27.0614c0-1.4246-.458-1.9041-1.506-2.4931l-5.441-3.3219v1.7808l3.126 1.7767c2.315 1.3041 2.315 1.5438 2.315 4.0411l-.111 24.3288zm109.772-48.8737v-.3493c0-3.2658-1.915-6.6438-4.852-8.3973-1.126-.7013-2.135-1.2835-2.135-1.2835l-1.35.9356.783.4603c3.83 2.2232 5.982 5.0191 5.982 9.563zm44.464 64.3477-11.941-7.949c-1.415-.956-3.074-2.763-3.074-6.134v-28.788l-1.184.726-.475.2411v28.2929c0 3.135 1.188 5.304 3.193 6.63l11.822 7.946zm-51.412 1.366-12.756-8.229c-3.059-1.929-3.654-3.748-3.654-7.263v-26.0053l-.946.4877-.707.3589v25.7667c0 4.121 1.3 5.936 3.305 7.263l13.219 8.589zm58.36-43.8959-4.169-4.4507.124 2.9658 2.202 2.5137zm-48.633 28.4259v-38.356l-2.779 1.0931v36.1699z" fill="#8f98a9"/><path d="m101.405 123.138-1.4477-2.864-3.7462 2.381c-2.7804-3.344-7.263-7.278-17.9108-7.278-11.2579-.118-25.0599 8.705-31.353 16.342l1.0907 1.432c8.5886-5.61 17.4301-8.107 25.1767-8.107 6.2945 0 11.4968 2.981 13.6728 7.392zm11.628-65.379c-2.182-3.3398-7.99-9.5398-19.4897-9.5398-13.7938-.1164-25.8923 10.4973-26.3786 23.3822-.3668 10.2589 4.5979 23.4987 4.1102 33.7576-.2376 3.462-.9699 5.966-2.4164 7.87l1.4465 1.675 8.476-6.082c4.1186-2.993 6.4154-6.686 6.2932-13.1233-.1209-7.9945-3.8754-20.2808-3.8754-29.7014 0-8.1151 3.15-14.1986 10.2908-14.1986 4.8424 0 8.7154 4.8904 9.3164 7.6342.248 1.3083 0 1.9069-1.2086 2.7411l-3.3863 2.274v3.6931l16.8229-10.3835zm31.18 31.7342-16.218-17.6548-25.3 14.5493v3.3397l5.206-2.8575v33.0441c0 1.904.728 3.098 1.936 3.937l13.436 8.585 19.006-10.859-1.574-3.34-9.927 5.249-8.954-6.086c-1.091-.71-1.212-1.427-1.212-2.979v-10.736zm-12.71 2.6247-10.891 6.678v-17.4178l.969-.5931zm54.979 40.6711c-1.217-3.362-4.739-6.833-11.066-7.071-5.964-.121-14.476 2.16-21.523 7.433l-1.343-1.681c5.111-5.514 17.029-14.377 29.55-14.501 6.572 0 11.191 2.16 14.474 5.634l5.476-2.997 1.582 3.119zm75.03-73.4588c-4.751 2.7534-6.332 6.474-6.332 12.226v45.8888c0 2.884.37 4.195 1.948 5.039l1.583.842 4.377-2.526 1.461 2.885-15.204 8.989-5.224-3.481c-2.319-1.556-3.295-3.475-3.295-7.192v-40.9804c0-7.6658 2.44-11.7466 5.845-14.2575l1.946-1.4384-14.349-8.2726-6.446 3.8315v59.6794c0 5.033-.73 5.753-5.236 8.027 0 0-3.517 1.681-8.373 4.198h-.977v-66.1441c0-3.2329-.37-3.9575-2.194-5.3932l-5.102-4.0726-6.204 3.4713v34.2767c0 5.9859-.973 10.3009-5.836 13.2949l-12.159 7.55-1.222-2.034c3.773-2.881 4.622-6.959 4.622-11.749v-34.9879c0-5.1535-.722-7.1891-6.201-6.2302-2.065.3562-5.227.837-7.173 1.0767-8.028 1.0809-11.435-4.5534-5.961-11.6219 0 0 1.34-1.7986 4.743-6.1164l2.682 1.8027-1.953 2.7548c-2.551 3.6014-.485 5.5178 3.655 4.074 1.942-.7206 5.711-2.1534 8.385-3.2384 11.549-4.4287 15.809 2.8808 16.418 7.1945l14.352-8.5068 12.394 9.3425 15.32-9.3425 11.799 6.5931c4.011 2.2699 5.957 1.3124 8.756-.1273l2.312-1.1959 1.822 2.9986zm54.833 57.8558-1.089-2.609-4.229 2.131v-32.1504c0-1.6534-.6-2.963-2.292-3.9178l-15.594-9.1329-25.261 14.4726v3.4438l5.202-2.9657v31.4394c0 2.844.717 3.917 2.539 4.983l15.346 8.901zm59.917 6.763-1.207-2.73-4.476 2.497-1.563-.953c-1.692-.949-2.058-2.141-2.058-4.986v-34.0482c0-2.7315-.603-3.9123-2.3-5.1013l-9.307-6.8836-14.381 8.0726-7.61-8.0726-15.229 9.1397 2.056 2.3671 5.194-3.0767 3.746 4.1493v47.2247h.967c6.045-2.621 7.977-3.447 7.977-3.447 2.9-1.189 3.749-2.137 3.749-5.454v-39.3976l4.96-2.8439 5.799 4.511c1.566 1.3014 1.807 2.3699 1.807 4.3836l.122 32.2769c0 3.555 1.089 5.574 3.502 6.998l5.081 2.973zm-77.926-1.776-.722.119-9.915-5.699c-1.686-.949-2.057-2.016-2.057-4.156l.128-31.2013.72-.2398 9.551 5.4617c1.929 1.0685 2.295 2.0178 2.295 4.0315zm111.448 1.263-.728.12-8.613-5.526c-1.693-1.075-2.3-1.918-2.3-4.07v-30.5901l10.791-6.4863.85.4822v46.0682zm17.95-4.92-1.088-2.76-4.37 2.274v-50.856c0-7.437-3.393-12.2315-8.972-15.5931l-5.457-3.3617-17.107 9.8343 3.396 1.563 5.585-2.9973 3.631 2.037c3.884 2.1603 6.432 6.4836 6.432 10.9178v1.9151l-29.353 16.7931v3.2425l4.972-2.6397v30.471c0 2.633.726 3.718 2.424 4.796l14.555 8.999zm47.184-28.5502-16.378-17.7534-25.349 14.6301v3.3589l5.215-2.8739v33.2305c0 1.915.728 3.116 1.939 3.958l13.467 8.635 19.04-10.921-1.45-3.357-9.949 5.279-8.977-6.123c-1.216-.836-1.334-1.434-1.334-2.993v-10.798zm-12.857 2.6397-10.918 6.7165v-17.5165l1.094-.5972z" fill="#1a171b"/></g></svg>

<svg width="520" height="180" viewBox="0 0 520 180" fill="none" xmlns="http://www.w3.org/2000/svg">
<path fill-rule="evenodd" clip-rule="evenodd" d="M98.359 59.322C97.9936 57.6165 95.0436 53.6987 91.738 53.6987C90.9974 53.6987 90.5097 53.822 90.0219 53.9494C93.2081 55.1727 95.6592 58.3398 96.3998 60.548L98.2354 59.448V59.322H98.359V59.322ZM119.202 133.556L107.292 125.607C105.86 124.651 104.194 122.844 104.194 119.473V90.685L103.001 91.411L102.528 91.6521V120.311C102.528 122.722 103.834 125.249 105.616 126.454L117.654 134.521L119.202 133.556ZM67.7564 104.68C67.9898 99.796 66.9421 93.8384 65.8861 88.1179C64.83 82.2823 63.8866 76.3234 64.0061 71.0891C64.1256 67.8754 64.7119 64.7782 66 61.9179C63.774 65.37 62.3706 69.2987 62.2497 73.47C61.8996 83.596 66.7045 96.8124 66.2321 107.064C66.1353 108.455 66.02 109.845 65.8861 111.233L66.1167 110.992C67.0574 109.68 67.6424 107.659 67.7564 104.68M84.4639 133.384C82.677 129.836 78.3945 127.671 73.3895 127.671C72.9087 127.781 72.4321 127.781 71.9583 127.781C76.8438 128.585 81.0096 131.208 82.5616 134.521L84.4639 133.382V133.384ZM127.539 91.0275L123.37 86.5754L123.497 89.5412L125.696 92.0549L127.539 91.0275ZM241.746 66.0275L231.752 60.1686L233.253 59.1782L242.869 64.785C242.493 65.1563 242.118 65.5275 241.746 66.0275ZM244.122 134.521L240.02 131.669C237.324 129.771 235.921 126.566 235.921 123.007V83.3713C235.921 77.9124 237.095 74.1138 238.965 71.5069C237.912 74.1138 237.443 77.3193 237.443 81.0001L237.558 121.58C237.558 125.971 238.85 128.821 241.897 130.956L245.648 133.573L244.123 134.521H244.122ZM210.91 134.159C210.91 134.159 210.523 134.399 210.268 134.521H209.24V68.2658C209.24 65.0617 208.982 65.0617 206.925 63.633L203.962 61.496L205.898 60.548C207.44 61.7316 209.758 63.3973 209.758 63.5179C210.658 64.3467 210.91 64.8193 210.91 66.7206V134.275V134.159ZM161.786 52.3289C160.761 54.9727 160.889 57.4987 162.172 59.5686C163.334 61.4042 165.386 62.67 167.835 63.2467C160.247 63.8179 156.909 58.4206 161.786 52.3289M179.648 109.863C180.142 107.974 180.343 105.849 180.343 103.61V69.2878C180.343 65.1617 180.142 64.6946 178.951 63.3973H179.152C180.836 63.0412 181.73 63.3974 181.73 66.9302V101.37C181.73 105.381 181.138 107.975 179.648 109.864M182.633 134.522C181.64 131.281 178.637 128.54 173.393 127.79C174.147 127.671 174.893 127.671 175.647 127.671C182.133 127.789 184.009 131.775 184.385 133.023L184.509 133.393L182.633 134.521V134.522ZM360.977 133.68L357.399 131.525C354.171 129.601 352.498 126.612 352.498 122.058V89.5878C352.498 87.6727 352.383 87.7932 351.661 87.1919C351.661 87.1919 349.154 85.1535 347.481 83.8357L345.693 84.8015L349.153 87.4316C351.067 88.8658 350.83 88.9864 350.83 91.8645V123.373C350.83 127.686 352.619 130.681 355.126 132.126L359.425 134.521L360.977 133.68ZM327.629 134.274V85.6247L325.761 83.8357L323.46 84.9138L325.614 86.9439V134.521H326.774C327.058 134.397 327.489 134.274 327.489 134.274H327.629ZM288.723 133.678L274.83 125.34C272.048 123.651 270.967 121.6 270.967 117.975V90.685L269.758 91.2891L269.269 91.5289V119.304C269.269 122.566 270.717 124.975 273.259 126.432L287.147 134.521L288.723 133.678V133.678ZM295.67 118.082V91.0206C295.67 89.596 295.212 89.1165 294.164 88.5275L288.723 85.2056V86.9864L291.849 88.7631C294.164 90.0672 294.164 90.3069 294.164 92.8042L294.053 117.133L295.67 118.082ZM405.442 69.2083V68.859C405.442 65.5932 403.527 62.2152 400.59 60.4617C399.464 59.7604 398.455 59.1782 398.455 59.1782L397.105 60.1138L397.888 60.5741C401.718 62.7973 403.87 65.5932 403.87 70.1371L405.442 69.2083V69.2083ZM449.906 133.556L437.965 125.607C436.55 124.651 434.891 122.844 434.891 119.473V90.685L433.707 91.411L433.232 91.6521V119.945C433.232 123.08 434.42 125.249 436.425 126.575L448.247 134.521L449.906 133.556V133.556ZM398.494 134.922L385.738 126.693C382.679 124.764 382.084 122.945 382.084 119.43V93.4247L381.138 93.9124L380.431 94.2713V120.038C380.431 124.159 381.731 125.974 383.736 127.301L396.955 135.89L398.494 134.922V134.922ZM456.854 91.0261L452.685 86.5754L452.809 89.5412L455.011 92.0549L456.854 91.0261ZM408.221 119.452V81.096L405.442 82.1891V118.359L408.221 119.452Z" fill="#8F98A9"/>
<path fill-rule="evenodd" clip-rule="evenodd" d="M101.405 123.138L99.9573 120.274L96.2111 122.655C93.4307 119.311 88.9481 115.377 78.3003 115.377C67.0424 115.259 53.2404 124.082 46.9473 131.719L48.038 133.151C56.6266 127.541 65.4681 125.044 73.2147 125.044C79.5092 125.044 84.7115 128.025 86.8875 132.436L101.405 123.138V123.138ZM113.033 57.759C110.851 54.4192 105.043 48.2192 93.5433 48.2192C79.7495 48.1028 67.651 58.7165 67.1647 71.6014C66.7979 81.8603 71.7626 95.1001 71.2749 105.359C71.0373 108.821 70.305 111.325 68.8585 113.229L70.305 114.904L78.781 108.822C82.8996 105.829 85.1964 102.136 85.0742 95.6987C84.9533 87.7042 81.1988 75.4179 81.1988 65.9973C81.1988 57.8822 84.3488 51.7987 91.4896 51.7987C96.332 51.7987 100.205 56.6891 100.806 59.4329C101.054 60.7412 100.806 61.3398 99.5974 62.174L96.2111 64.448V68.1411L113.034 57.7576L113.033 57.759ZM144.213 89.4932L127.995 71.8384L102.695 86.3877V89.7274L107.901 86.8699V119.914C107.901 121.818 108.629 123.012 109.837 123.851L123.273 132.436L142.279 121.577L140.705 118.237L130.778 123.486L121.824 117.4C120.733 116.69 120.612 115.973 120.612 114.421V103.685L144.213 89.4932ZM131.503 92.1179L120.612 98.7959V81.3781L121.581 80.785L131.503 92.1179ZM186.482 132.789C185.265 129.427 181.743 125.956 175.416 125.718C169.452 125.597 160.94 127.878 153.893 133.151L152.55 131.47C157.661 125.956 169.579 117.093 182.1 116.969C188.672 116.969 193.291 119.129 196.574 122.603L202.05 119.606L203.632 122.725L186.482 132.789V132.789ZM261.512 59.3302C256.761 62.0836 255.18 65.8042 255.18 71.5562V117.445C255.18 120.329 255.55 121.64 257.128 122.484L258.711 123.326L263.088 120.8L264.549 123.685L249.345 132.674L244.121 129.193C241.802 127.637 240.826 125.718 240.826 122.001V81.0206C240.826 73.3548 243.266 69.274 246.671 66.7631L248.617 65.3247L234.268 57.0521L227.822 60.8836V120.563C227.822 125.596 227.092 126.316 222.586 128.59C222.586 128.59 219.069 130.271 214.213 132.788H213.236V66.6439C213.236 63.411 212.866 62.6864 211.042 61.2507L205.94 57.1781L199.736 60.6494V94.9261C199.736 100.912 198.763 105.227 193.9 108.221L181.741 115.771L180.519 113.737C184.292 110.856 185.141 106.778 185.141 101.988V67.0001C185.141 61.8466 184.419 59.811 178.94 60.7699C176.875 61.1261 173.713 61.6069 171.767 61.8466C163.739 62.9275 160.332 57.2932 165.806 50.2247C165.806 50.2247 167.146 48.4261 170.549 44.1083L173.231 45.911L171.278 48.6658C168.727 52.2672 170.793 54.1836 174.933 52.7398C176.875 52.0192 180.644 50.5864 183.318 49.5014C194.867 45.0727 199.127 52.3822 199.736 56.6959L214.088 48.1891L226.482 57.5316L241.802 48.1891L253.601 54.7822C257.612 57.0521 259.558 56.0946 262.357 54.6549L264.669 53.459L266.491 56.4576L261.512 59.3302V59.3302ZM316.345 117.186L315.256 114.577L311.027 116.708V84.5576C311.027 82.9042 310.427 81.5946 308.735 80.6398L293.141 71.5069L267.88 85.9795V89.4233L273.082 86.4576V117.897C273.082 120.741 273.799 121.814 275.621 122.88L290.967 131.781L316.345 117.186V117.186ZM376.262 123.949L375.055 121.219L370.579 123.716L369.016 122.763C367.324 121.814 366.958 120.622 366.958 117.777V83.7288C366.958 80.9973 366.355 79.8165 364.658 78.6275L355.351 71.7439L340.97 79.8165L333.36 71.7439L318.131 80.8836L320.187 83.2507L325.381 80.174L329.127 84.3233V131.548H330.094C336.139 128.927 338.071 128.101 338.071 128.101C340.971 126.912 341.82 125.964 341.82 122.647V83.2494L346.78 80.4055L352.579 84.9165C354.145 86.2179 354.386 87.2864 354.386 89.3001L354.508 121.577C354.508 125.132 355.597 127.151 358.01 128.575L363.091 131.548L376.262 123.949ZM298.336 122.173L297.614 122.292L287.699 116.593C286.013 115.644 285.642 114.577 285.642 112.437L285.77 81.2357L286.49 80.9959L296.041 86.4576C297.97 87.5261 298.336 88.4754 298.336 90.4891V122.173V122.173ZM409.784 123.436L409.056 123.556L400.443 118.03C398.75 116.955 398.143 116.112 398.143 113.96V83.3699L408.934 76.8836L409.784 77.3658V123.434V123.436ZM427.734 118.516L426.646 115.756L422.276 118.03V67.174C422.276 59.737 418.883 54.9425 413.304 51.5809L407.847 48.2192L390.74 58.0535L394.136 59.6165L399.721 56.6192L403.352 58.6562C407.236 60.8165 409.784 65.1398 409.784 69.574V71.4891L380.431 88.2822V91.5247L385.403 88.885V119.356C385.403 121.989 386.129 123.074 387.827 124.152L402.382 133.151L427.734 118.516ZM474.918 89.9658L458.54 72.2124L433.191 86.8425V90.2014L438.406 87.3275V120.558C438.406 122.473 439.134 123.674 440.345 124.516L453.812 133.151L472.852 122.23L471.402 118.873L461.453 124.152L452.476 118.029C451.26 117.193 451.142 116.595 451.142 115.036V104.238L474.918 89.9658ZM462.061 92.6055L451.143 99.322V81.8055L452.237 81.2083L462.061 92.6055V92.6055Z" fill="#1A171B"/>
</svg>
